albertroad.htmlalbertroad.htmlalbertroad.htmlalbertroad.htmlalbertroad.htmlalbertroad.htmlalbertroad.html<P ALIGN=Right>Finbar Dwyer
albertroad.htmlalbertroad.html<PRE>T:Beare Island Reel, The
T:Beare Island Reel, The
M:C|
L:1/8
C:Dale Russ
R:reel
D:Kevin Burke and Mícheál Ó Domhnaill: Portland
Z:Finbar Dwyer
K:EDor
EB^GB AGEe|dBcA Beec|d2fd AFDF|(3GFE ED EDB,A,|
!B,EEF GFGA|~B2GA Bdef|g2fg effe|1dBAF E3E:|2dBAF E3B|
!|:Beef gefd|B2AG FDED|Beef gefd|Be^df e2ef|
!edBc d3c|BcdB AFDF|G~B3 AFDF|1(3GFE ED E3B:|2(3GFE FD E3E||
albertroad.htmlalbertroad.htmlalbertroad.htmlalbertroad.htmlalbertroad.htmlalbertroad.htmlalbertroad.html